X: 21
L:1/8
M:2/4
K:G
|: [G4B4] | A [B,2G2] A | {^AB}d2 {^AB}d2 | [G4B4] | A [B,2G2] A |
{^AB}d2 {^AB}d2 | G2 A2 |1 [B,4G4] | [B,GD]EG :|2 [B,4G4] | [B,2G2] ||



